X:162
%%pagewidth 9in
%%vocalfont Baskerville10Pro 14
T:Stingo or Oil of the Barley
M:6/8
L:1/8
K:G
%%score 1 2
V:1 clef-treble
V:2 clef-bass octave=-1
V:1
[B,E]2EB2G|[DA]F2D2D|E2E[^DB]2G|E3G3|
w:There's a lus-ty li-quor which Good fel-lows use to take-a,~It
V:2
[EG]6|[DF]6|[CG]3[B,B]3|G3B3&E6|
V:1
[B,E]2EB2G|[DA]2FD2D|E2E[^DB]2G|E3G2||
w:is distill-d with Nard most rich, And wa-ter of the lake-a; 
V:2
[EG]6|[DF]6|[CG]3[B,B]3|G3B2&E3-E2||
V:1
G|[B,EG]2[EG][EG]2(F/G/)|[DFA]2[FA][FA]2[DFA]|[DGB]2B[Ge]2[Fd]|[GB]3d2G|
w:Of Hop a lit-tle* quan-ti-ty, And Barm to it they bring too; Being 
V:2
z|[E,E]2[EB][EB]2[E,E]|[D,D]2[DAd][DAd]2[D,D]|[G,G]3[Cc]2[DA]|G3B3|
V:1
[B,EG]2[EG] G>F[B,EG]&x3E2x|[DFA]2A A>Bc&x3[CE]2x|(B>[A)F][EG] [^DA]F2&[EG]2x4|E3G3||
w:bar-rell'd up,* They call't a cup* Of dain-*ty good Old Stin-go.
V:2
[E,E]2[EB][EB]2[E,E]|[D,D]3[A,,A,]3|[B,,B,]3FA2&x3B,3|G3B3&E6||

